src/assets/filled/LinkCircle.svg

<?xml version="1.0" encoding="UTF-8"?>
<svg width="24" height="24" viewBox="0 0 24 24" xmlns="http://www.w3.org/2000/svg">
 <path d="m12 2c-5.52 0-10 4.48-10 10s4.48 10 10 10 10-4.48 10-10-4.48-10-10-10zm-3.35 12.77c-0.11 0.3-0.4 0.49-0.7 0.49-0.09 0-0.17-0.01-0.26-0.05-0.81-0.3-1.49-0.89-1.92-1.66-1-1.8-0.38-4.15 1.37-5.24l2.34-1.45c0.86-0.53 1.87-0.69 2.83-0.44s1.77 0.88 2.26 1.76c1 1.8 0.38 4.15-1.37 5.24l-0.26 0.19c-0.34 0.24-0.81 0.16-1.05-0.17-0.24-0.34-0.16-0.81 0.17-1.05l0.31-0.22c1.12-0.7 1.5-2.15 0.89-3.26-0.29-0.52-0.76-0.89-1.32-1.04s-1.15-0.06-1.66 0.26l-2.36 1.46c-1.08 0.67-1.46 2.12-0.85 3.24 0.25 0.45 0.65 0.8 1.13 0.98 0.39 0.14 0.59 0.57 0.45 0.96zm8.27 0.88-2.34 1.45c-0.59 0.37-1.25 0.55-1.92 0.55-0.3 0-0.61-0.04-0.91-0.12-0.96-0.25-1.77-0.88-2.25-1.76-1-1.8-0.38-4.15 1.37-5.24l0.26-0.19c0.34-0.24 0.81-0.16 1.05 0.17 0.24 0.34 0.16 0.81-0.17 1.05l-0.31 0.22c-1.12 0.7-1.5 2.15-0.89 3.26 0.29 0.52 0.76 0.89 1.32 1.04s1.15 0.06 1.66-0.26l2.34-1.45c1.08-0.67 1.46-2.12 0.85-3.24-0.25-0.45-0.65-0.8-1.13-0.98-0.39-0.14-0.59-0.57-0.44-0.96 0.14-0.39 0.58-0.59 0.96-0.44 0.81 0.3 1.49 0.89 1.92 1.66 0.99 1.8 0.38 4.15-1.37 5.24z"/>
</svg>

<svg width="24" height="24" viewBox="0 0 24 24"  xmlns="http://www.w3.org/2000/svg">
<path d="M12 2C6.48 2 2 6.48 2 12C2 17.52 6.48 22 12 22C17.52 22 22 17.52 22 12C22 6.48 17.52 2 12 2ZM8.65 14.77C8.54 15.07 8.25 15.26 7.95 15.26C7.86 15.26 7.78 15.25 7.69 15.21C6.88 14.91 6.2 14.32 5.77 13.55C4.77 11.75 5.39 9.4 7.14 8.31L9.48 6.86C10.34 6.33 11.35 6.17 12.31 6.42C13.27 6.67 14.08 7.3 14.57 8.18C15.57 9.98 14.95 12.33 13.2 13.42L12.94 13.61C12.6 13.85 12.13 13.77 11.89 13.44C11.65 13.1 11.73 12.63 12.06 12.39L12.37 12.17C13.49 11.47 13.87 10.02 13.26 8.91C12.97 8.39 12.5 8.02 11.94 7.87C11.38 7.72 10.79 7.81 10.28 8.13L7.92 9.59C6.84 10.26 6.46 11.71 7.07 12.83C7.32 13.28 7.72 13.63 8.2 13.81C8.59 13.95 8.79 14.38 8.65 14.77ZM16.92 15.65L14.58 17.1C13.99 17.47 13.33 17.65 12.66 17.65C12.36 17.65 12.05 17.61 11.75 17.53C10.79 17.28 9.98 16.65 9.5 15.77C8.5 13.97 9.12 11.62 10.87 10.53L11.13 10.34C11.47 10.1 11.94 10.18 12.18 10.51C12.42 10.85 12.34 11.32 12.01 11.56L11.7 11.78C10.58 12.48 10.2 13.93 10.81 15.04C11.1 15.56 11.57 15.93 12.13 16.08C12.69 16.23 13.28 16.14 13.79 15.82L16.13 14.37C17.21 13.7 17.59 12.25 16.98 11.13C16.73 10.68 16.33 10.33 15.85 10.15C15.46 10.01 15.26 9.58 15.41 9.19C15.55 8.8 15.99 8.6 16.37 8.75C17.18 9.05 17.86 9.64 18.29 10.41C19.28 12.21 18.67 14.56 16.92 15.65Z" />
</svg>
